X: 175
M:4/4
L:1/8
Q:180
K:C
M:4/4
|: a2 e2 fedc| a2 e2 fedc| g2d2 BcdB| g2d2 BcdB| a2 e2 fgag|agfe fedc| B2 G2 BcdB| A4 e4:|

